X:56
T:Lancers Quadrilles No.1. Le4.056
B:L.Leadley MS#4 c1850
Z:Village Music Project, 2016 Steve Mansfield
M:6/8
L:1/8
Q:3/8=100
K:G
ded | b2b a2a | g2d ded | c'2c' b2b | a3 ded |
b2b a2a | g2d ded | e2a def | g3 !fine!||
ded | f2f g2g | ^g2a ded | cdc BcB | A3 ded |
b2b a2a | g2g gfe | d2B c2A | G3 BcB |
e2f g2a | f2B BcB | e2e g2g | g2B BcB |
^g2g f2f | e2e =f2f | e2e ^d2e | e3 !D.C.!|]

